!!!OTL: WOHL IN DEM HOLDEN MAIENSCHEIN
!!!ARE: Europa, Mitteleuropa, Deutschland
!!!SCT: F1131
!!!YEM: Copyright 1995, estate of Helmut Schaffrath.
**kern
*ICvox
*Ivox
*M4/4
*k[f#]
*G:
{4d
=1
4g
8g
8a
4b
8b
8cc
=2
4dd
8cc#
8ee
4dd}
{4g
=3
4cc
8g
8cc
4ee
8cc
8ee
=4
4.gg
8ee
4dd}
{4b
=5
2b
4a
4ee
=6
2ff#
4dd}
{8dd
8dd
=7
2ee
2cc#
=8
4dd
2r}
{4a
=9
4.cc
8b
4a
4cc
=10
4.ee
8dd
4cc}
{4cc
=11
4.b
8cc
4dd
4gg
=12
4gg
8ff#
8ee
4dd}
{4cc
=13
2b
4b
4a
=14
2.g}
==
!!!AGN: Liebes - Lied
!!!ONB: ESAC (Essen Associative Code) Database: FINK
!!!AMT: simple quadruple
!!!AIN: vox
!!!EED: Helmut Schaffrath
!!!EEV: 1.0
*-
